src/icons/default/Home.svg

<svg width="24" height="24" viewBox="0 0 24 24" fill="none" xmlns="http://www.w3.org/2000/svg">
<path d="M3.62729 8.89357L10.6273 3.50356C11.4364 2.88055 12.5636 2.88055 13.3727 3.50357L20.3727 8.89357C20.9259 9.31952 21.25 9.97814 21.25 10.6763V19C21.25 20.2426 20.2426 21.25 19 21.25H16C15.3096 21.25 14.75 20.6904 14.75 20V17C14.75 15.4812 13.5188 14.25 12 14.25C10.4812 14.25 9.25 15.4812 9.25 17V20C9.25 20.6904 8.69036 21.25 8 21.25H5C3.75736 21.25 2.75 20.2426 2.75 19V10.6763C2.75 9.97814 3.07411 9.31952 3.62729 8.89357Z" stroke="black" stroke-width="1.5"/>
</svg>

<svg xmlns="http://www.w3.org/2000/svg" width="24" height="24" fill="none"><path stroke="#000" stroke-width="1.5" d="m3.627 8.894 7-5.39a2.25 2.25 0 0 1 2.746 0l7 5.39a2.25 2.25 0 0 1 .877 1.782V19A2.25 2.25 0 0 1 19 21.25h-3c-.69 0-1.25-.56-1.25-1.25v-3a2.75 2.75 0 1 0-5.5 0v3c0 .69-.56 1.25-1.25 1.25H5A2.25 2.25 0 0 1 2.75 19v-8.324c0-.698.324-1.356.877-1.782Z"/></svg>
